site/static/images/icons/learn-puppeteer-playwright.svg

<svg fill="none" height="32" viewBox="0 0 32 32" width="32" xmlns="http://www.w3.org/2000/svg"><circle cx="16" cy="16" fill="#f0f8ff" r="16"/><path clip-rule="evenodd" d="m15.6549 8.19882c.2195-.09843.4707-.09843.6902 0l8.1563 3.65628c.3034.136.4986.4374.4986.7699s-.1952.6339-.4986.7699l-2.8764 1.2894v3.1438c0 1.1519-.9119 1.9676-1.8668 2.4451-1.0054.5028-2.3353.7893-3.7582.7893-.3127 0-.6196-.0138-.9186-.0404-.4641-.0414-.8069-.4511-.7656-.9153.0414-.4642.4511-.8069.9153-.7655.2488.0221.5058.0337.7689.0337 1.2177 0 2.2785-.2486 3.0035-.6111.7756-.3878.934-.7674.934-.9358v-2.3873l-3.5924 1.6104c-.2195.0984-.4707.0984-.6902 0l-4.1549-1.8625v1.8707c.333.1185.6466.31.913.5764.493.493.7745 1.1911.7745 2.0204v3.375c0 .2239-.0889.4385-.2471.5968-.1583.1581-.3729.2471-.5967.247l-3.37498-.0001c-.46598 0-.84372-.3778-.84372-.8438v-3.375c0-.8292.28155-1.5274.77448-2.0203.26641-.2664.57997-.4579.91302-.5764v-2.6272l-2.31389-1.0373c-.30338-.136-.49861-.4374-.49861-.7699s.19523-.6339.49861-.7699zm-5.74847 4.42618 6.09357 2.7316 6.0936-2.7316-6.0936-2.7316zm-.09393 7.0311c0-.4362.14032-.6872.2802-.8271.1478-.1478.3504-.2274.5635-.2274.2132 0 .4157.0796.5636.2274.1399.14.2802.391.2802.8272v2.5313h-1.6875z" fill="#0075ff" fill-rule="evenodd"/></svg>

<svg width="32" height="32" viewBox="0 0 32 32" fill="none" xmlns="http://www.w3.org/2000/svg">
<circle cx="16" cy="16" r="16" fill="#F0F8FF"/>
<path fill-rule="evenodd" clip-rule="evenodd" d="M15.6549 8.19882C15.8744 8.10039 16.1256 8.10039 16.3451 8.19882L24.5014 11.8551C24.8048 11.9911 25 12.2925 25 12.625C25 12.9575 24.8048 13.2589 24.5014 13.3949L21.625 14.6843V17.8281C21.625 18.98 20.7131 19.7957 19.7582 20.2732C18.7528 20.776 17.4229 21.0625 16 21.0625C15.6873 21.0625 15.3804 21.0487 15.0814 21.0221C14.6173 20.9807 14.2745 20.571 14.3158 20.1068C14.3572 19.6426 14.7669 19.2999 15.2311 19.3413C15.4799 19.3634 15.7369 19.375 16 19.375C17.2177 19.375 18.2785 19.1264 19.0035 18.7639C19.7791 18.3761 19.9375 17.9965 19.9375 17.8281V15.4408L16.3451 17.0512C16.1256 17.1496 15.8744 17.1496 15.6549 17.0512L11.5 15.1887V17.0594C11.833 17.1779 12.1466 17.3694 12.413 17.6358C12.906 18.1288 13.1875 18.8269 13.1875 19.6562V23.0312C13.1875 23.2551 13.0986 23.4697 12.9404 23.628C12.7821 23.7861 12.5675 23.8751 12.3437 23.875L8.96872 23.8749C8.50274 23.8749 8.125 23.4971 8.125 23.0311V19.6561C8.125 18.8269 8.40655 18.1287 8.89948 17.6358C9.16589 17.3694 9.47945 17.1779 9.8125 17.0594V14.4322L7.49861 13.3949C7.19523 13.2589 7 12.9575 7 12.625C7 12.2925 7.19523 11.9911 7.49861 11.8551L15.6549 8.19882ZM9.90643 12.625L16 15.3566L22.0936 12.625L16 9.8934L9.90643 12.625ZM9.8125 19.6561C9.8125 19.2199 9.95282 18.9689 10.0927 18.829C10.2405 18.6812 10.4431 18.6016 10.6562 18.6016C10.8694 18.6016 11.0719 18.6812 11.2198 18.829C11.3597 18.969 11.5 19.22 11.5 19.6562V22.1875H9.8125V19.6561Z" fill="#0075ff"/>
</svg>
